X:354
T: DIE MAEDCHEN IN DEUTSCHLAND SIND BLUEHEND
N: B0421
O: Europa, Mitteleuropa, Deutschland
R: Liebes - Lied, Liebes - Lust, national
M: 6/8
L: 1/16
K: F
C2 | A3GF2F2E2F2 | d3dd2c4
c2 | d2d2c2G2G2A2 | F6z4
C2 | A3GF2F2E2F2 | d3dd2c4
c2 | d2d2c2G2G2A2 | F6z4
A2 | G2A2=B2c2G2G2 | G2A2=B2c4
c2 | c2c2c2c2c2c2 | c2c2c2c2c2
c2 | c2A2F2d2c2E2 | F6z4

@@@ Tune index: 2157
